Newaita-dark/.LP/24/weather-cloudy.svg

<svg xmlns="http://www.w3.org/2000/svg" xmlns:xlink="http://www.w3.org/1999/xlink" width="24px" height="24px" viewBox="0 0 24 24" version="1.1">
<defs>
<linearGradient id="linear0" gradientUnits="userSpaceOnUse" x1="254" y1="233.5" x2="254" y2="254.666672" gradientTransform="matrix(0.0468795,0,0,0.0468795,-0.000000000000010659,9.831017)">
<stop offset="0" style="stop-color:rgb(0%,0%,0%);stop-opacity:0.27451;"/>
<stop offset="1" style="stop-color:rgb(0%,0%,0%);stop-opacity:0;"/>
</linearGradient>
<radialGradient id="radial0" gradientUnits="userSpaceOnUse" cx="450.908936" cy="189.579361" fx="450.908936" fy="189.579361" r="21.166656" gradientTransform="matrix(0.000000130628,-0.0585993,-0.105479,-0.0000000761541,36.865348,47.448429)">
<stop offset="0" style="stop-color:rgb(0%,0%,0%);stop-opacity:0.313725;"/>
<stop offset="0.222222" style="stop-color:rgb(0%,0%,0%);stop-opacity:0.27451;"/>
<stop offset="1" style="stop-color:rgb(0%,0%,0%);stop-opacity:0;"/>
</radialGradient>
<radialGradient id="radial1" gradientUnits="userSpaceOnUse" cx="450.908936" cy="189.579361" fx="450.908936" fy="189.579361" r="21.166656" gradientTransform="matrix(-0.000000130628,0.0585993,0.105479,0.0000000761541,-14.787076,-5.893681)">
<stop offset="0" style="stop-color:rgb(0%,0%,0%);stop-opacity:0.313725;"/>
<stop offset="0.222222" style="stop-color:rgb(0%,0%,0%);stop-opacity:0.27451;"/>
<stop offset="1" style="stop-color:rgb(0%,0%,0%);stop-opacity:0;"/>
</radialGradient>
<radialGradient id="radial2" gradientUnits="userSpaceOnUse" cx="450.908936" cy="189.579361" fx="450.908936" fy="189.579361" r="21.166656" gradientTransform="matrix(-0.000000130628,-0.0585993,0.105479,-0.0000000761541,-14.787076,47.448429)">
<stop offset="0" style="stop-color:rgb(0%,0%,0%);stop-opacity:0.313725;"/>
<stop offset="0.222222" style="stop-color:rgb(0%,0%,0%);stop-opacity:0.27451;"/>
<stop offset="1" style="stop-color:rgb(0%,0%,0%);stop-opacity:0;"/>
</radialGradient>
<radialGradient id="radial3" gradientUnits="userSpaceOnUse" cx="450.908936" cy="189.579361" fx="450.908936" fy="189.579361" r="21.166656" gradientTransform="matrix(0.000000130628,0.0585993,-0.105479,0.0000000761541,36.865348,-5.893681)">
<stop offset="0" style="stop-color:rgb(0%,0%,0%);stop-opacity:0.313725;"/>
<stop offset="0.222222" style="stop-color:rgb(0%,0%,0%);stop-opacity:0.27451;"/>
<stop offset="1" style="stop-color:rgb(0%,0%,0%);stop-opacity:0;"/>
</radialGradient>
<linearGradient id="linear1" gradientUnits="userSpaceOnUse" x1="211.666672" y1="-20.499998" x2="211.666672" y2="-168.666656" gradientTransform="matrix(0.0468795,0,0,0.0468795,-0.117204,10.047498)">
<stop offset="0" style="stop-color:rgb(39.215686%,70.980392%,96.470588%);stop-opacity:1;"/>
<stop offset="1" style="stop-color:rgb(56.470588%,79.215686%,97.647059%);stop-opacity:1;"/>
</linearGradient>
<linearGradient id="linear2" gradientUnits="userSpaceOnUse" x1="960" y1="1695.118164" x2="960" y2="815.118103" gradientTransform="matrix(0.0124035,0,0,0.0124035,0,0)">
<stop offset="0" style="stop-color:rgb(39.215686%,70.980392%,96.470588%);stop-opacity:1;"/>
<stop offset="1" style="stop-color:rgb(56.470588%,79.215686%,97.647059%);stop-opacity:1;"/>
</linearGradient>
</defs>
<g id="surface1">
<path style=" stroke:none;fill-rule:nonzero;fill:url(#linear0);" d="M 4.960938 20.777344 L 17.117188 20.777344 L 17.117188 21.769531 L 4.960938 21.769531 Z M 4.960938 20.777344 "/>
<path style=" stroke:none;fill-rule:nonzero;fill:url(#radial0);" d="M 17.117188 20.777344 L 19.101562 20.777344 L 19.101562 19.785156 L 17.117188 19.785156 Z M 17.117188 20.777344 "/>
<path style=" stroke:none;fill-rule:nonzero;fill:url(#radial1);" d="M 4.960938 20.777344 L 2.976562 20.777344 L 2.976562 21.769531 L 4.960938 21.769531 Z M 4.960938 20.777344 "/>
<path style=" stroke:none;fill-rule:nonzero;fill:url(#radial2);" d="M 4.960938 20.777344 L 2.976562 20.777344 L 2.976562 19.785156 L 4.960938 19.785156 Z M 4.960938 20.777344 "/>
<path style=" stroke:none;fill-rule:nonzero;fill:url(#radial3);" d="M 17.117188 20.777344 L 19.101562 20.777344 L 19.101562 21.769531 L 17.117188 21.769531 Z M 17.117188 20.777344 "/>
<path style=" stroke:none;fill-rule:nonzero;fill:url(#linear1);" d="M 13.046875 2.140625 C 11.847656 2.140625 10.792969 2.742188 10.171875 3.660156 C 9.648438 3.328125 9.015625 3.132812 8.332031 3.132812 C 6.800781 3.132812 5.523438 4.113281 5.191406 5.433594 C 4.882812 5.234375 4.511719 5.117188 4.117188 5.117188 C 3.015625 5.117188 2.132812 6.003906 2.132812 7.101562 C 2.132812 8.203125 3.015625 9.085938 4.117188 9.085938 L 13.046875 9.085938 C 14.96875 9.085938 16.519531 7.539062 16.519531 5.613281 C 16.519531 3.6875 14.96875 2.140625 13.046875 2.140625 Z M 5.871094 8.035156 C 5.886719 8.054688 5.90625 8.074219 5.925781 8.09375 L 5.835938 8.09375 C 5.847656 8.074219 5.859375 8.054688 5.871094 8.035156 Z M 5.871094 8.035156 "/>
<path style=" stroke:none;fill-rule:nonzero;fill:url(#linear2);" d="M 16.371094 10.109375 C 14.191406 10.109375 12.316406 11.378906 11.441406 13.21875 C 11.117188 13.132812 10.773438 13.085938 10.417969 13.085938 C 8.722656 13.085938 7.277344 14.144531 6.710938 15.636719 C 6.21875 15.28125 5.617188 15.070312 4.960938 15.070312 C 3.3125 15.070312 1.984375 16.398438 1.984375 18.046875 C 1.984375 19.699219 3.3125 21.027344 4.960938 21.027344 C 5.082031 21.027344 5.203125 21.019531 5.324219 21.003906 C 5.367188 21.019531 5.410156 21.027344 5.457031 21.027344 L 16.371094 21.027344 C 16.371094 21.027344 16.375 21.027344 16.375 21.027344 C 19.398438 21.023438 21.832031 18.589844 21.832031 15.566406 C 21.832031 12.542969 19.394531 10.109375 16.371094 10.109375 Z M 16.371094 10.109375 "/>
<path style=" stroke:none;fill-rule:nonzero;fill:rgb(100%,100%,100%);fill-opacity:0.392157;" d="M 16.371094 10.109375 C 14.191406 10.109375 12.316406 11.378906 11.441406 13.21875 C 11.117188 13.132812 10.773438 13.085938 10.417969 13.085938 C 8.722656 13.085938 7.277344 14.144531 6.710938 15.636719 C 6.21875 15.28125 5.617188 15.070312 4.960938 15.070312 C 3.3125 15.070312 1.984375 16.398438 1.984375 18.046875 C 1.984375 18.089844 1.984375 18.132812 1.988281 18.171875 C 2.050781 16.582031 3.355469 15.320312 4.960938 15.320312 C 5.617188 15.320312 6.21875 15.527344 6.710938 15.882812 C 7.277344 14.390625 8.722656 13.335938 10.417969 13.335938 C 10.773438 13.335938 11.117188 13.382812 11.441406 13.46875 C 12.316406 11.625 14.191406 10.359375 16.371094 10.359375 C 19.355469 10.359375 21.761719 12.726562 21.828125 15.691406 C 21.828125 15.652344 21.832031 15.609375 21.832031 15.566406 C 21.832031 12.542969 19.394531 10.109375 16.371094 10.109375 Z M 16.371094 10.109375 "/>
<path style=" stroke:none;fill-rule:nonzero;fill:rgb(0%,0%,0%);fill-opacity:0.235294;" d="M 21.828125 15.453125 C 21.769531 18.425781 19.359375 20.796875 16.375 20.800781 C 16.375 20.800781 16.371094 20.800781 16.371094 20.800781 L 5.457031 20.800781 C 5.410156 20.800781 5.367188 20.792969 5.324219 20.777344 C 5.203125 20.792969 5.082031 20.800781 4.960938 20.800781 C 3.351562 20.800781 2.046875 19.53125 1.988281 17.933594 C 1.984375 17.972656 1.984375 18.011719 1.984375 18.046875 C 1.984375 19.699219 3.3125 21.027344 4.960938 21.027344 C 5.082031 21.027344 5.203125 21.019531 5.324219 21.003906 C 5.367188 21.019531 5.410156 21.027344 5.457031 21.027344 L 16.371094 21.027344 C 16.371094 21.027344 16.375 21.027344 16.375 21.027344 C 19.398438 21.023438 21.832031 18.589844 21.832031 15.566406 C 21.832031 15.53125 21.828125 15.492188 21.828125 15.453125 Z M 21.828125 15.453125 "/>
<path style="fill:none;stroke-width:11.338583;stroke-linecap:round;stroke-linejoin:miter;stroke:rgb(12.941177%,12.941177%,12.941177%);stroke-opacity:1;stroke-miterlimit:4;" d="M 1319.871917 815.039017 C 1144.140939 815.039017 992.974506 917.391289 922.430171 1065.723352 C 896.290975 1058.79489 868.577129 1055.015729 839.918493 1055.015729 C 703.238843 1055.015729 586.714718 1140.361778 541.049858 1260.665064 C 501.368669 1232.006428 452.869438 1215.000204 399.961187 1215.000204 C 267.060698 1215.000204 159.984475 1322.076427 159.984475 1454.976916 C 159.984475 1588.192335 267.060698 1695.268559 399.961187 1695.268559 C 409.724019 1695.268559 419.486851 1694.638698 429.249683 1693.378978 C 432.713914 1694.638698 436.178145 1695.268559 439.957306 1695.268559 L 1319.871917 1695.268559 C 1319.871917 1695.268559 1320.186847 1695.268559 1320.186847 1695.268559 C 1563.94272 1694.953629 1760.144153 1498.752196 1760.144153 1254.996323 C 1760.144153 1011.24045 1563.62779 815.039017 1319.871917 815.039017 Z M 1319.871917 815.039017 " transform="matrix(0.0124035,0,0,0.0124035,0,0)"/>
<path style=" stroke:none;fill-rule:nonzero;fill:rgb(100%,100%,100%);fill-opacity:0.392157;" d="M 13.164062 2.140625 C 11.964844 2.140625 10.910156 2.742188 10.289062 3.660156 C 9.765625 3.328125 9.132812 3.132812 8.449219 3.132812 C 6.917969 3.132812 5.640625 4.113281 5.308594 5.433594 C 5 5.234375 4.628906 5.117188 4.234375 5.117188 C 3.132812 5.117188 2.25 6.003906 2.25 7.101562 C 2.25 7.144531 2.25 7.183594 2.253906 7.226562 C 2.316406 6.183594 3.175781 5.367188 4.234375 5.367188 C 4.628906 5.367188 5 5.480469 5.308594 5.679688 C 5.640625 4.359375 6.917969 3.378906 8.449219 3.378906 C 9.132812 3.378906 9.765625 3.574219 10.289062 3.910156 C 10.910156 2.988281 11.964844 2.386719 13.164062 2.386719 C 15.046875 2.386719 16.570312 3.871094 16.632812 5.738281 C 16.636719 5.695312 16.636719 5.65625 16.636719 5.613281 C 16.636719 3.6875 15.085938 2.140625 13.164062 2.140625 Z M 5.988281 8.28125 C 5.976562 8.300781 5.964844 8.324219 5.953125 8.34375 L 6.042969 8.34375 C 6.023438 8.324219 6.003906 8.304688 5.988281 8.28125 Z M 5.988281 8.28125 "/>
<path style=" stroke:none;fill-rule:nonzero;fill:rgb(0%,0%,0%);fill-opacity:0.235294;" d="M 16.515625 5.503906 C 16.460938 7.378906 14.933594 8.871094 13.046875 8.871094 L 4.117188 8.871094 C 3.050781 8.871094 2.191406 8.042969 2.132812 6.992188 C 2.132812 7.03125 2.132812 7.066406 2.132812 7.101562 C 2.132812 8.203125 3.015625 9.085938 4.117188 9.085938 L 13.046875 9.085938 C 14.96875 9.085938 16.519531 7.539062 16.519531 5.613281 C 16.519531 5.578125 16.519531 5.542969 16.515625 5.503906 Z M 5.871094 7.816406 C 5.859375 7.839844 5.847656 7.859375 5.835938 7.878906 L 5.925781 7.878906 C 5.90625 7.859375 5.886719 7.839844 5.871094 7.816406 Z M 5.871094 7.816406 "/>
<path style="fill:none;stroke-width:3;stroke-linecap:square;stroke-linejoin:round;stroke:rgb(12.941177%,12.941177%,12.941177%);stroke-opacity:1;stroke-miterlimit:4;" d="M 278.306891 -169.337783 C 252.725989 -169.337783 230.228126 -156.505669 216.979385 -136.924196 C 205.813779 -144.006856 192.315062 -148.173127 177.733114 -148.173127 C 145.06955 -148.173127 117.822139 -127.258448 110.739479 -99.094457 C 104.156771 -103.344053 96.240856 -105.843815 87.824989 -105.843815 C 64.327222 -105.843815 45.495677 -86.928946 45.495677 -63.514504 C 45.495677 -40.016736 64.327222 -21.185192 87.824989 -21.185192 L 278.306891 -21.185192 C 319.302996 -21.185192 352.383187 -54.182057 352.383187 -95.261488 C 352.383187 -136.340918 319.302996 -169.337783 278.306891 -169.337783 Z M 125.238101 -43.599729 C 125.571403 -43.183102 125.98803 -42.766475 126.404657 -42.349848 L 124.488172 -42.349848 C 124.738149 -42.766475 124.988125 -43.183102 125.238101 -43.599729 Z M 125.238101 -43.599729 " transform="matrix(0.0468795,0,0,0.0468795,0,10.079088)"/>
</g>
</svg>

<svg xmlns="http://www.w3.org/2000/svg" width="24" height="24"><defs><linearGradient id="a" gradientUnits="userSpaceOnUse" x1="254" y1="233.5" x2="254" y2="254.667" gradientTransform="matrix(.04688 0 0 .04688 0 9.831)"><stop offset="0" stop-opacity=".275"/><stop offset="1" stop-opacity="0"/></linearGradient><radialGradient id="b" gradientUnits="userSpaceOnUse" cx="450.909" cy="189.579" fx="450.909" fy="189.579" r="21.167" gradientTransform="matrix(0 -.0586 -.10548 0 36.865 47.448)"><stop offset="0" stop-opacity=".314"/><stop offset=".222" stop-opacity=".275"/><stop offset="1" stop-opacity="0"/></radialGradient><radialGradient id="c" gradientUnits="userSpaceOnUse" cx="450.909" cy="189.579" fx="450.909" fy="189.579" r="21.167" gradientTransform="matrix(0 .0586 .10548 0 -14.787 -5.894)"><stop offset="0" stop-opacity=".314"/><stop offset=".222" stop-opacity=".275"/><stop offset="1" stop-opacity="0"/></radialGradient><radialGradient id="d" gradientUnits="userSpaceOnUse" cx="450.909" cy="189.579" fx="450.909" fy="189.579" r="21.167" gradientTransform="matrix(0 -.0586 .10548 0 -14.787 47.448)"><stop offset="0" stop-opacity=".314"/><stop offset=".222" stop-opacity=".275"/><stop offset="1" stop-opacity="0"/></radialGradient><radialGradient id="e" gradientUnits="userSpaceOnUse" cx="450.909" cy="189.579" fx="450.909" fy="189.579" r="21.167" gradientTransform="matrix(0 .0586 -.10548 0 36.865 -5.894)"><stop offset="0" stop-opacity=".314"/><stop offset=".222" stop-opacity=".275"/><stop offset="1" stop-opacity="0"/></radialGradient><linearGradient id="f" gradientUnits="userSpaceOnUse" x1="211.667" y1="-20.5" x2="211.667" y2="-168.667" gradientTransform="matrix(.04688 0 0 .04688 -.117 10.047)"><stop offset="0" stop-color="#64b5f6"/><stop offset="1" stop-color="#90caf9"/></linearGradient><linearGradient id="g" gradientUnits="userSpaceOnUse" x1="960" y1="1695.118" x2="960" y2="815.118" gradientTransform="scale(.0124)"><stop offset="0" stop-color="#64b5f6"/><stop offset="1" stop-color="#90caf9"/></linearGradient></defs><path d="M4.96 20.777h12.157v.993H4.961zm0 0" fill="url(#a)"/><path d="M17.117 20.777h1.985v-.992h-1.985zm0 0" fill="url(#b)"/><path d="M4.96 20.777H2.978v.993H4.96zm0 0" fill="url(#c)"/><path d="M4.96 20.777H2.978v-.992H4.96zm0 0" fill="url(#d)"/><path d="M17.117 20.777h1.985v.993h-1.985zm0 0" fill="url(#e)"/><path d="M13.047 2.14a3.46 3.46 0 0 0-2.875 1.52 3.427 3.427 0 0 0-1.84-.527c-1.531 0-2.809.98-3.14 2.3a1.98 1.98 0 0 0-1.075-.316 1.98 1.98 0 0 0-1.984 1.985c0 1.101.883 1.984 1.984 1.984h8.93a3.465 3.465 0 0 0 3.473-3.473 3.465 3.465 0 0 0-3.473-3.472zM5.87 8.036c.016.02.035.04.055.059h-.09l.035-.059zm0 0" fill="url(#f)"/><path d="M16.371 10.11a5.449 5.449 0 0 0-4.93 3.109 3.994 3.994 0 0 0-1.023-.133 3.96 3.96 0 0 0-3.707 2.55 2.973 2.973 0 0 0-1.75-.566 2.97 2.97 0 0 0-2.977 2.977 2.972 2.972 0 0 0 3.34 2.957.38.38 0 0 0 .133.023h10.918a5.45 5.45 0 0 0 5.457-5.46 5.448 5.448 0 0 0-5.46-5.458zm0 0" fill="url(#g)"/><path d="M16.371 10.11a5.449 5.449 0 0 0-4.93 3.109 3.994 3.994 0 0 0-1.023-.133 3.96 3.96 0 0 0-3.707 2.55 2.973 2.973 0 0 0-1.75-.566 2.97 2.97 0 0 0-2.973 3.102 2.968 2.968 0 0 1 2.973-2.852 2.97 2.97 0 0 1 1.75.563 3.957 3.957 0 0 1 3.707-2.547c.355 0 .7.047 1.023.133a5.442 5.442 0 0 1 4.93-3.11 5.444 5.444 0 0 1 5.457 5.332c0-.039.004-.082.004-.125a5.448 5.448 0 0 0-5.46-5.457zm0 0" fill="#fff" fill-opacity=".392"/><path d="M21.828 15.453a5.447 5.447 0 0 1-5.453 5.348H5.457a.38.38 0 0 1-.133-.024 2.971 2.971 0 0 1-3.336-2.844c-.004.04-.004.079-.004.114a2.972 2.972 0 0 0 3.34 2.957.38.38 0 0 0 .133.023h10.918a5.45 5.45 0 0 0 5.457-5.46c0-.036-.004-.075-.004-.114zm0 0" fill-opacity=".235"/><path d="M16.371 10.11a5.449 5.449 0 0 0-4.93 3.109 3.994 3.994 0 0 0-1.023-.133 3.96 3.96 0 0 0-3.707 2.55 2.973 2.973 0 0 0-1.75-.566 2.97 2.97 0 0 0-2.977 2.977 2.972 2.972 0 0 0 3.34 2.957.38.38 0 0 0 .133.023h10.918a5.45 5.45 0 0 0 5.457-5.46 5.448 5.448 0 0 0-5.461-5.458zm0 0" fill="none" stroke-width=".1406036" stroke-linecap="round" stroke="#212121"/><path d="M13.164 2.14a3.46 3.46 0 0 0-2.875 1.52 3.427 3.427 0 0 0-1.84-.527c-1.531 0-2.808.98-3.14 2.3a1.98 1.98 0 0 0-1.075-.316 1.98 1.98 0 0 0-1.98 2.11 1.976 1.976 0 0 1 1.98-1.86c.395 0 .766.113 1.075.313.332-1.32 1.609-2.301 3.14-2.301.684 0 1.317.195 1.84.531a3.454 3.454 0 0 1 2.875-1.523 3.463 3.463 0 0 1 3.469 3.351c.004-.043.004-.082.004-.125a3.465 3.465 0 0 0-3.473-3.472zM5.988 8.282l-.035.063h.09c-.02-.02-.04-.04-.055-.063zm0 0" fill="#fff" fill-opacity=".392"/><path d="M16.516 5.504a3.463 3.463 0 0 1-3.47 3.367H4.118a1.983 1.983 0 0 1-1.984-1.879v.11c0 1.101.883 1.984 1.984 1.984h8.93a3.465 3.465 0 0 0 3.473-3.473c0-.035 0-.07-.004-.11zM5.87 7.816c-.012.024-.023.043-.035.063h.09c-.02-.02-.04-.04-.055-.063zm0 0" fill-opacity=".235"/><path d="M13.047 2.14a3.46 3.46 0 0 0-2.875 1.52 3.427 3.427 0 0 0-1.84-.527c-1.531 0-2.809.98-3.14 2.3a1.98 1.98 0 0 0-1.075-.316 1.98 1.98 0 0 0-1.984 1.985c0 1.101.883 1.984 1.984 1.984h8.93a3.465 3.465 0 0 0 3.473-3.473 3.465 3.465 0 0 0-3.473-3.472zM5.87 8.036a.75.75 0 0 0 .055.059h-.09l.035-.059zm0 0" fill="none" stroke-width=".14064" stroke-linecap="square" stroke-linejoin="round" stroke="#212121"/></svg>
